X: 1448
T: Neden Kalbim Seni Sevdi
C: Nasib´in Mehmet Yürü
O: Turkey
F: http://compmusic.upf.edu/node/140
N: acemasiran--sarki--curcuna--neden_kalbim--nasibin_mehmet_yuru
N: makam= acemasiran
N: form= sarki
N: usul= curcuna = 10/8
M: 10/8
L: 1/16
K: C _B   
Q: 1/4=240
%%MIDI tuningsystem comma53
f2c2 d2e2 f2e2 g2f4z2  | g2a2 b2a2 g2f2 g2a4z2  | \
w:  ARANAĞME  |   | 
g2f2 e2d2 c2B2 c2d4z2  | 
w:   | 
c2B2 A4 G2_7/8AG FEF4z2  | f2c2 d2e2 f2e2 g2f4z2  | \
w:   |  ARANAĞME  | 
g2a2 b2a2 g2f2 g2a4z2  | 
w:   | 
g2f2 e2d2 c2B2 c2d4z2  | c2B2 A4 G2_7/8AG FEF4z2  | \
w:   |   | 
z4 c2f4f2 e2f4z2  | 
w:  Ne den  kal *  bim   | 
g4 a4 g2f2 e2f4z2  | z4 g2g2 f2f2 e2e4d2  | \
w:  se ni  *  sev *  di    |  O  göz *  ler  *  zih  | 
d4 e4 d2c2 =B2c4z2  | 
w:  ni mi  *  çel *  di    | 
z4 c2f4f2 e2f4z2  | g4 a4 g2f2 e2f4z2  | \
w:  Ne den  kal *  bim   |  se ni  *  sev *  di    | 
z4 g2g2 f2f2 e2e4d2  | 
w:  O  göz *  ler  *  zih  | 
d4 e4 d2c2 =B2c4z2  | f4 d2e4f4g4z2  | \
w:  ni mi  *  çel *  di    |  SAZ Bu  if ti râk   | 
d4 _e2d2 c2B2 c2d4z2  | 
w:  câ na  *  *  yet *  ti   | 
z4 c2c2 B2B2 A2A4G2  | G4 A4 G2F2 E2F3cde  | \
w:  Ye şil  *  göz *  lü   |  ya man_ *  es *  mer   SAZ  | 
f4 d2e4f4g4z2  | 
w:  SAZ Bu  if ti râk   | 
d4 _e2d2 c2B2 c2d4z2  | z4 c2c2 B2B2 A2A4G2  | \
w:  câ na  *  *  yet *  ti   |  Ye şil  *  göz *  lü   | 
G4 A4 G2F2 E2F3cde  | 
w:  ya man_ *  es *  mer   SAZ  | 
f2c2 d2e2 f2e2 g2f4z2  | g2a2 b2a2 g2f2 g2a4z2  | \
w:  ARANAĞME  |   | 
g2f2 e2d2 c2B2 c2d4z2  | 
w:   | 
c2B2 A4 G2_7/8AG FEF4z2  | f2c2 d2e2 f2e2 g2f4z2  | \
w:   |  ARANAĞME  | 
g2a2 b2a2 g2f2 g2a4z2  | 
w:   | 
g2f2 e2d2 c2B2 c2d4z2  | c2B2 A4 G2_7/8AG FEF4z2  | \
w:   |   | 
z4 c2f4f2 e2f4z2  | 
w:  Ne den  kal *  bim   | 
g4 a4 g2f2 e2f4z2  | z4 g2g2 f2f2 e2e4d2  | \
w:  se ni  *  sev *  di    |  O  göz *  ler  *  zih  | 
d4 e4 d2c2 =B2c4z2  | 
w:  ni mi  *  çel *  di    | 
z4 c2f4f2 e2f4z2  | g4 a4 g2f2 e2f4z2  | \
w:  Ne den  kal *  bim   |  se ni  *  sev *  di    | 
z4 g2g2 f2f2 e2e4d2  | 
w:  O  göz *  ler  *  zih  | 
d4 e4 d2c2 =B2c4z2  | f4 d2e4f4g4z2  | \
w:  ni mi  *  çel *  di    |  SAZ Bu  if ti râk   | 
d4 _e2d2 c2B2 c2d4z2  | 
w:  câ na  *  *  yet *  ti   | 
z4 c2c2 B2B2 A2A4G2  | G4 A4 G2F2 E2F3|
w:  Ye şil  *  göz *  lü   |  ya man_ *  es *  mer    | 


